X: 38308
T: Stack Of Bacon, The
R: hornpipe
M: 4/4
K: Gmajor
|:GA|BdBG ABAF|GAGF D2DE|FEFG AGAB|cBcd c2A2|
(3Bcd BG ABAF|GAGF D2 DE|FEFG AFAc|1 (3Bcd (3cBA G2:|2 (3Bcd e^cd2||
|:dA|defg a2af|afbf a2f2|defg a2af|(3agf (3gfe d2dA|
[1 defg a2af|afbf a2f2|defg a2ae|(3fga (3gfed2:|
[2 ded^c A2AF|GAGF D2DE|FEFG AFAc|(3Bcd (3cBA G2||

